icons/Communication/chat-heart-line.svg

<svg viewBox="0 0 24 24" xmlns="http://www.w3.org/2000/svg"><path d="M6.45455 19L2 22.5V4C2 3.44772 2.44772 3 3 3H21C21.5523 3 22 3.44772 22 4V18C22 18.5523 21.5523 19 21 19H6.45455ZM4 18.3851L5.76282 17H20V5H4V18.3851ZM12.0178 14.6997L8.65901 11.341C7.78033 10.4623 7.78033 9.03769 8.65901 8.15901C9.53769 7.28033 10.9623 7.28033 11.841 8.15901L12.0178 8.33579L12.1945 8.15901C13.0732 7.28033 14.4978 7.28033 15.3765 8.15901C16.2552 9.03769 16.2552 10.4623 15.3765 11.341L12.0178 14.6997Z"/></svg>

<svg xmlns="http://www.w3.org/2000/svg" viewBox="0 0 24 24">
    <g>
        <path fill="none" d="M0 0h24v24H0z"/>
        <path fill-rule="nonzero" d="M6.455 19L2 22.5V4a1 1 0 0 1 1-1h18a1 1 0 0 1 1 1v14a1 1 0 0 1-1 1H6.455zM4 18.385L5.763 17H20V5H4v13.385zm8.018-3.685L8.659 11.34a2.25 2.25 0 0 1 3.182-3.182l.177.177.177-.177a2.25 2.25 0 0 1 3.182 3.182l-3.36 3.359z"/>
    </g>
</svg>
